assets/stickers/emoticons/stickers/imgly_sticker_emoticons_baby_chicken.svg

<svg height="42" viewBox="0 0 61 42" width="61" xmlns="http://www.w3.org/2000/svg"><g fill="none" transform="translate(0 -1)"><g transform="translate(0 4)"><path d="m60.08 22.617c0 12.031-13.244 15.408-29.58 15.408s-29.58-3.377-29.58-15.408c0-12.033 13.244-21.787 29.58-21.787s29.58 9.754 29.58 21.787z" fill="#ffc533"/><path d="m60.08 22.617c0 12.031-13.244 15.408-29.58 15.408s-29.58-3.377-29.58-15.408c0-12.033 13.244-18.762 29.58-18.762s29.58 6.729 29.58 18.762z" fill="#ffb031"/><path d="m60.08 22.617c0 12.031-13.244 15.408-29.58 15.408s-29.58-3.377-29.58-15.408c0-12.033 13.244-5.492 29.58-5.492s29.58-6.541 29.58 5.492z" fill="#ff912e"/><ellipse cx="30.5" cy="25.641" fill="#ff4817" rx="10.688" ry="2.375"/><path d="m41.188 25.641c0 1.312-4.785 2.375-10.688 2.375s-10.688-1.062-10.688-2.375c0-1.311 4.785.502 10.688.502s10.688-1.813 10.688-.502z" fill="#d33213"/><g fill="#082856"><circle cx="18.81" cy="20.312" r="2.657"/><circle cx="42.19" cy="20.312" r="2.657"/></g><g fill="#000" transform="translate(16 20)"><path d="m5.467.312c0 1.469-1.189 2.658-2.656 2.658-1.469 0-2.658-1.189-2.658-2.658"/><path d="m28.848.312c0 1.469-1.189 2.658-2.656 2.658-1.469 0-2.658-1.189-2.658-2.658"/></g></g><path d="m32.416 2.891c0 1.059-.857 3.75-1.916 3.75s-1.916-2.691-1.916-3.75.857-1.916 1.916-1.916 1.916.857 1.916 1.916z" fill="#ffc533"/></g></svg>

<?xml version="1.0" encoding="UTF-8"?>
<svg width="61px" height="42px" viewBox="0 0 61 42" version="1.1" xmlns="http://www.w3.org/2000/svg" xmlns:xlink="http://www.w3.org/1999/xlink">
    <!-- Generator: Sketch 43.1 (39012) - http://www.bohemiancoding.com/sketch -->
    <title>imgly_sticker_emoticons_baby_chicken</title>
    <desc>Created with Sketch.</desc>
    <defs></defs>
    <g id="Page-1" stroke="none" stroke-width="1" fill="none" fill-rule="evenodd">
        <g id="baby_chicken" transform="translate(0.000000, -1.000000)" fill-rule="nonzero">
            <g id="Group" transform="translate(0.000000, 4.000000)">
                <path d="M60.08,22.617 C60.08,34.648 46.836,38.025 30.5,38.025 C14.164,38.025 0.92,34.648 0.92,22.617 C0.92,10.584 14.164,0.83 30.5,0.83 C46.836,0.83 60.08,10.584 60.08,22.617 Z" id="Shape" fill="#FFC533"></path>
                <path d="M60.08,22.617 C60.08,34.648 46.836,38.025 30.5,38.025 C14.164,38.025 0.92,34.648 0.92,22.617 C0.92,10.584 14.164,3.855 30.5,3.855 C46.836,3.855 60.08,10.584 60.08,22.617 Z" id="Shape" fill="#FFB031"></path>
                <path d="M60.08,22.617 C60.08,34.648 46.836,38.025 30.5,38.025 C14.164,38.025 0.92,34.648 0.92,22.617 C0.92,10.584 14.164,17.125 30.5,17.125 C46.836,17.125 60.08,10.584 60.08,22.617 Z" id="Shape" fill="#FF912E"></path>
                <ellipse id="Oval" fill="#FF4817" cx="30.5" cy="25.641" rx="10.688" ry="2.375"></ellipse>
                <path d="M41.188,25.641 C41.188,26.953 36.403,28.016 30.5,28.016 C24.597,28.016 19.812,26.954 19.812,25.641 C19.812,24.33 24.597,26.143 30.5,26.143 C36.403,26.143 41.188,24.33 41.188,25.641 Z" id="Shape" fill="#D33213"></path>
                <g transform="translate(16.000000, 17.000000)" id="Oval" fill="#082856">
                    <circle cx="2.81" cy="3.312" r="2.657"></circle>
                    <circle cx="26.19" cy="3.312" r="2.657"></circle>
                </g>
                <g transform="translate(16.000000, 20.000000)" id="Shape" fill="#000000">
                    <path d="M5.467,0.312 C5.467,1.781 4.278,2.97 2.811,2.97 C1.342,2.97 0.153,1.781 0.153,0.312"></path>
                    <path d="M28.848,0.312 C28.848,1.781 27.659,2.97 26.192,2.97 C24.723,2.97 23.534,1.781 23.534,0.312"></path>
                </g>
            </g>
            <path d="M32.416,2.891 C32.416,3.95 31.559,6.641 30.5,6.641 C29.441,6.641 28.584,3.95 28.584,2.891 C28.584,1.832 29.441,0.975 30.5,0.975 C31.559,0.975 32.416,1.832 32.416,2.891 Z" id="Shape" fill="#FFC533"></path>
        </g>
    </g>
</svg>
